Simply-Cyan-Circles/scalable/emotes/face-worried.svg

<svg xmlns="http://www.w3.org/2000/svg" width="48" height="48" viewBox="0 0 12.7 12.7"><path d="M6.34.07a6.29 6.29 0 0 0-6.29 6.3 6.29 6.29 0 0 0 6.3 6.28 6.29 6.29 0 0 0 6.28-6.29A6.29 6.29 0 0 0 6.34.07zM6.32 1l.01.01a5.4 5.4 0 0 1 5.4 5.4 5.4 5.4 0 0 1-5.4 5.41 5.4 5.4 0 0 1-5.41-5.4A5.4 5.4 0 0 1 6.32 1zm2.02 2.54a.66 1.55 0 0 0-.65 1.55.66 1.55 0 0 0 .65 1.54A.66 1.55 0 0 0 9 5.1a.66 1.55 0 0 0-.66-1.55zm-3.98.03a.66 1.55 0 0 0-.66 1.55.66 1.55 0 0 0 .66 1.54A.66 1.55 0 0 0 5 5.12a.66 1.55 0 0 0-.65-1.55zm3.97.41a.2.3 0 0 1 .2.3.2.3 0 0 1-.2.3.2.3 0 0 1-.2-.3.2.3 0 0 1 .2-.3zm-3.99.03a.2.3 0 0 1 .2.3.2.3 0 0 1-.2.3.2.3 0 0 1-.2-.3.2.3 0 0 1 .2-.3zm1.93 3.96c-.44 0-.7.29-.88.53-.18.23-.28.4-.54.4-.1 0-.22-.1-.36-.25-.14-.14-.29-.32-.46-.44-.18-.13-.42-.17-.62.04-.21.2-.46.88-.62 1.58.32-.7.63-1.04.8-1.19.15-.15.18-.1.3-.03.12.08.26.26.41.42.16.16.33.33.55.33.36 0 .58-.3.76-.52.17-.22.3-.4.66-.4.35 0 .48.18.66.4.17.23.39.52.76.52.21 0 .38-.18.51-.34.13-.17.24-.33.34-.4.09-.08.14-.1.28.02.55.7.6.72.92 1.19-.16-.7-.5-1.4-.75-1.58-.23-.17-.45-.17-.61-.04-.17.13-.28.32-.39.46-.1.14-.2.23-.3.23-.27 0-.36-.17-.55-.4-.18-.24-.44-.53-.87-.53z" fill="#5beedc"/></svg>

<?xml version="1.0" encoding="UTF-8" standalone="no"?>
<svg
   xmlns:dc="http://purl.org/dc/elements/1.1/"
   xmlns:cc="http://creativecommons.org/ns#"
   xmlns:rdf="http://www.w3.org/1999/02/22-rdf-syntax-ns#"
   xmlns:svg="http://www.w3.org/2000/svg"
   xmlns="http://www.w3.org/2000/svg"
   xmlns:sodipodi="http://sodipodi.sourceforge.net/DTD/sodipodi-0.dtd"
   xmlns:inkscape="http://www.inkscape.org/namespaces/inkscape"
   width="48"
   height="48"
   viewBox="0 0 12.7 12.7"
   version="1.1"
   id="svg4"
   sodipodi:docname="face-worried.svg"
   inkscape:version="0.92.4 (5da689c313, 2019-01-14)">
  <metadata
     id="metadata10">
    <rdf:RDF>
      <cc:Work
         rdf:about="">
        <dc:format>image/svg+xml</dc:format>
        <dc:type
           rdf:resource="http://purl.org/dc/dcmitype/StillImage" />
        <dc:title></dc:title>
      </cc:Work>
    </rdf:RDF>
  </metadata>
  <defs
     id="defs8" />
  <sodipodi:namedview
     pagecolor="#ffffff"
     bordercolor="#666666"
     borderopacity="1"
     objecttolerance="10"
     gridtolerance="10"
     guidetolerance="10"
     inkscape:pageopacity="0"
     inkscape:pageshadow="2"
     inkscape:window-width="1087"
     inkscape:window-height="480"
     id="namedview6"
     showgrid="false"
     inkscape:zoom="4.9166667"
     inkscape:cx="2.1355932"
     inkscape:cy="24"
     inkscape:window-x="0"
     inkscape:window-y="25"
     inkscape:window-maximized="0"
     inkscape:current-layer="svg4" />
  <path
     d="M 6.34,0.07 A 6.29,6.29 0 0 0 0.05,6.37 6.29,6.29 0 0 0 6.35,12.65 6.29,6.29 0 0 0 12.63,6.36 6.29,6.29 0 0 0 6.34,0.07 Z M 6.32,1 6.33,1.01 a 5.4,5.4 0 0 1 5.4,5.4 5.4,5.4 0 0 1 -5.4,5.41 A 5.4,5.4 0 0 1 0.92,6.42 5.4,5.4 0 0 1 6.32,1 Z M 8.34,3.54 A 0.66,1.55 0 0 0 7.69,5.09 0.66,1.55 0 0 0 8.34,6.63 0.66,1.55 0 0 0 9,5.1 0.66,1.55 0 0 0 8.34,3.55 Z M 4.36,3.57 A 0.66,1.55 0 0 0 3.7,5.12 0.66,1.55 0 0 0 4.36,6.66 0.66,1.55 0 0 0 5,5.12 0.66,1.55 0 0 0 4.35,3.57 Z m 3.97,0.41 a 0.2,0.3 0 0 1 0.2,0.3 0.2,0.3 0 0 1 -0.2,0.3 0.2,0.3 0 0 1 -0.2,-0.3 0.2,0.3 0 0 1 0.2,-0.3 z M 4.34,4.01 a 0.2,0.3 0 0 1 0.2,0.3 0.2,0.3 0 0 1 -0.2,0.3 0.2,0.3 0 0 1 -0.2,-0.3 0.2,0.3 0 0 1 0.2,-0.3 z M 6.27,7.97 C 5.83,7.97 5.57,8.26 5.39,8.5 5.21,8.73 5.11,8.9 4.85,8.9 4.75,8.9 4.63,8.8 4.49,8.65 4.35,8.51 4.2,8.33 4.03,8.21 3.85,8.08 3.61,8.04 3.41,8.25 3.2,8.45 2.95,9.13 2.79,9.83 3.11,9.13 3.42,8.79 3.59,8.64 3.74,8.49 3.77,8.54 3.89,8.61 4.01,8.69 4.15,8.87 4.3,9.03 c 0.16,0.16 0.33,0.33 0.55,0.33 0.36,0 0.58,-0.3 0.76,-0.52 0.17,-0.22 0.3,-0.4 0.66,-0.4 0.35,0 0.48,0.18 0.66,0.4 C 7.1,9.07 7.32,9.36 7.69,9.36 7.9,9.36 8.07,9.18 8.2,9.02 8.33,8.85 8.44,8.69 8.54,8.62 8.63,8.54 8.68,8.52 8.82,8.64 9.37,9.34 9.42,9.36 9.74,9.83 9.58,9.13 9.24,8.43 8.99,8.25 8.76,8.08 8.54,8.08 8.38,8.21 8.21,8.34 8.1,8.53 7.99,8.67 7.89,8.81 7.79,8.9 7.69,8.9 7.42,8.9 7.33,8.73 7.14,8.5 6.96,8.26 6.7,7.97 6.27,7.97 Z"
     id="path2"
     inkscape:connector-curvature="0"
     style="fill:#5beedc" />
</svg>
